public/icons/archive.svg

<svg xmlns:xlink="http://www.w3.org/1999/xlink" xmlns="http://www.w3.org/2000/svg" viewBox="0 0 24 24" height="24" width="24" preserveAspectRatio="xMidYMid meet" class="" fill="none"><title fill="none">archived-outline</title><path d="M21.4889 4.47778L19.9444 2.61111C19.6444 2.23333 19.1889 2 18.6667 2H5.33333C4.81111 2 4.35556 2.23333 4.04444 2.61111L2.51111 4.47778C2.18889 4.85556 2 5.35556 2 5.88889V19.7778C2 21 3 22 4.22222 22H19.7778C21 22 22 21 22 19.7778V5.88889C22 5.35556 21.8111 4.85556 21.4889 4.47778ZM5.6 4.22222H18.4L19.3 5.3H4.71111L5.6 4.22222ZM4.22222 19.7778V7.55556H19.7778V19.7778H4.22222ZM13.6111 9.77778H10.3889V13.1111H7.55556L12 17.5556L16.4444 13.1111H13.6111V9.77778Z" fill="#0AA0EA"></path></svg>

<svg xmlns="http://www.w3.org/2000/svg" height="24" width="24" preserveAspectRatio="xMidYMid meet" fill="none" xmlns:v="https://vecta.io/nano"><path d="M21.489 4.478l-1.544-1.867c-.3-.378-.756-.611-1.278-.611H5.333a1.65 1.65 0 0 0-1.289.611L2.511 4.478C2.189 4.856 2 5.356 2 5.889v13.889A2.23 2.23 0 0 0 4.222 22h15.556A2.23 2.23 0 0 0 22 19.778V5.889c0-.533-.189-1.033-.511-1.411zM5.6 4.222h12.8l.9 1.078H4.711L5.6 4.222zM4.222 19.778V7.556h15.556v12.222H4.222zm9.389-10h-3.222v3.333H7.556L12 17.556l4.444-4.444h-2.833V9.778z" fill="#0aa0ea"/></svg>
